X: 759
M: C|
L: 1/8
K: G
d2 |\
g2g2 g2d2 | e2dc B2d2 | B2A2 G2B2 | FGFE D2d2 |\
g2g2 g2d2 | e2dc B2A2 | B2d2 d3^c | d6 :|\
|: d2 |\
e2f2 g2fe | ^d3^c B2a2 |\
b2(ag) f3e | e4 e2ef | g2g2 g2gf | e2e2 e2fg |\
a2a2 a2ag | f3e d2g2 | d2cB A3G | G6 :|

